Adwaita++/status/24/battery-020-charging.svg

<svg xmlns="http://www.w3.org/2000/svg" width="24" height="24" version="1.1">
 <defs>
  <style id="current-color-scheme" type="text/css">
   .ColorScheme-Text { color:#dfdfdf; } .ColorScheme-Highlight { color:#4285f4; } .ColorScheme-NeutralText { color:#ff9800; } .ColorScheme-PositiveText { color:#4caf50; } .ColorScheme-NegativeText { color:#f44336; }
  </style>
 </defs>
 <path style="opacity:0.3;fill:currentColor" class="ColorScheme-PositiveText" d="M 10,5 V 6 H 7 v 12 c 0,0.55 0.446,1 1,1 h 8 c 0.554,0 1,-0.45 1,-1 V 6 H 14 V 5 Z m 2,4 v 3 h 3 l -3,5 V 14 H 9 Z"/>
 <path style="fill:currentColor" class="ColorScheme-PositiveText" d="m 7,15 v 3 c 0,0.55 0.446,1 1,1 h 8 c 0.554,0 1,-0.45 1,-1 V 15 H 13.1992 L 12,17 v -2 z"/>
</svg>

<svg width="24" height="24" viewBox="0 0 24 24" fill="none" xmlns="http://www.w3.org/2000/svg">
<path opacity="0.3" d="M10 5V6H7V18C7 18.55 7.446 19 8 19H16C16.554 19 17 18.55 17 18V6H14V5H10ZM12 9V12H15L12 17V14H9L12 9Z" fill="#4CAF50"/>
<path d="M7 15V18C7 18.55 7.446 19 8 19H16C16.554 19 17 18.55 17 18V15H13.1992L12 17V15H7Z" fill="#4CAF50"/>
</svg>
